X:1
T:Redeemer (Emerson), 87.87
T:Luther Orlando Emerson, 1863
T:Redeemer (Emerson), 87.87
T:Public Domain
C:Luther Orlando Emerson, 1863
Z:Public Domain
%%score ( 1 2 ) ( 3 4 )
L:1/8
M:3/4
K:Ab
V:1 treble 
V:2 treble 
V:3 bass 
V:4 bass 
V:1
 [CE][CA] | [Ec]2 [DB]2 [CA][DF] | [DF]2 [CE]2 EE | [DF]3 E [CA][=DA] | [EB]4 [Ec][Ee] | %5
 [Ee]2 [Ec]2 [EA][EA] | [FA]2 [DF]2 [DF][DF] | [CE]>[CE] [DE]2 [DB]2 | [CA]4 |] %9
V:2
 x2 | x6 | x4 EE | x3 E x2 | x6 | x6 | x6 | x6 | x4 |] %9
V:3
 [A,,A,][A,,A,] | [A,,A,]2 [A,,A,]2 [A,,A,][A,,A,] | [A,,A,]2 [A,,A,]2 [C,A,][C,A,] | %3
 [D,A,]3 [C,A,] [F,A,][F,A,] | [E,G,]4 A,[A,C] | [A,C]2 A,2 [C,A,][C,A,] | %6
 [D,A,]2 [D,A,]2 [D,A,][D,A,] | [E,A,]>[E,A,] [E,A,]2 [E,G,]2 | [A,,A,]4 |] %9
V:4
 x2 | x6 | x6 | x6 | x4 A, x | x2 A,2 x2 | x6 | x6 | x4 |] %9

